X: 1
T: McLarin's Reel
C: Traditional
B: RSCDS 47-9
N: Tune for The Kissing Bridge
R: reel
Z: 2014 John Chambers <jc:trillian.mit.edu>
M: C|
L: 1/8
K: Ador
A |\
"Am"EAAB cBAc | "G"Bgdg BGGB | "Am"EAAB cBca | "G"gedB "Am"cAA :|
^g |\
"Am"a2a^g aeef | "G"g2gf gdd^g | "Am"a2a^g aeef | "G"=gedB "Am"cAA ||
^g |\
"Am"a2a^g aeef | "G"g2gf gddg | "Am"edeg abag | "G"egdB "Am"cAA |]
